assets/thumbs-down.svg

<svg xmlns="http://www.w3.org/2000/svg" fill="none" viewBox="0 0 23 28">
  <path stroke="#2A2238" stroke-width="1.5" d="m12.0446 27.1901-.0006.0002c-1.2114.3029-2.3821-.6113-2.46837-1.8536-.12982-1.8945-.41501-3.6908-.80178-4.8083l-.00068-.002c-.25951-.7432-.94571-1.9921-1.99972-3.1703l-.00031-.0003c-1.05339-1.1761-2.46181-2.271-4.15841-2.7346l-.00063-.0001C1.61966 14.3502.75 13.5306.75 12.4663V5.3417c0-1.0627.8638-1.89563 1.90796-2.00605 2.06157-.21792 3.05424-.81834 3.99407-1.39267l.08386-.05067.01054-.00637.01033-.00671c.49242-.32003 1.01923-.58372 1.57052-.7861C8.93974.882082 9.68156.75 10.687.75h6.234c1.3892 0 2.3263.69597 2.7929 1.51606v.00002l.004.00684c.2217.38036.3418.81142.3485 1.25161-.0005.19893-.0298.39575-.0926.57367l-.1361.38579.2506.32334c.3241.41801.578.88588.752 1.38534.1683.50538.2216 1.06122.028 1.50459l-.1438.32922.1664.31837c.0956.18276.1719.37494.2277.57346l.0006.0019c.1155.40673.1727.86389.1727 1.32149 0 .4536-.0571.9131-.1719 1.3168-.0532.1818-.1186.3598-.1983.5218l-.1962.3992.2562.3636c.243.345.3994.7434.4558 1.1616.0564.4183.0113.8439-.1316 1.241l-.0027.0075c-.3041.8741-1.001 1.5783-1.6663 1.8006-1.3633.4538-2.9443.4527-4.176.3404l-.0019-.0001c-.27-.024-.5208-.0527-.7461-.0858l-1.0925-.1607.2533 1.0748c.7998 3.3927.2693 6.2768-.1031 7.6604-.0835.2907-.243.554-.4619.7628-.2201.2099-.4924.357-.7885.4262l-.0001-.0001-.0106.0027-.4649.1157Z"/>
</svg>

<svg width="23" height="28" viewBox="0 0 23 28" fill="none" xmlns="http://www.w3.org/2000/svg">
<path d="M12.0446 27.1901L12.044 27.1903C10.8326 27.4932 9.6619 26.579 9.57563 25.3367C9.44581 23.4422 9.16062 21.6459 8.77385 20.5284L8.77317 20.5264C8.51366 19.7832 7.82746 18.5343 6.77345 17.3561L6.77314 17.3558C5.71975 16.1797 4.31133 15.0848 2.61473 14.6212L2.6141 14.6211C1.61966 14.3502 0.75 13.5306 0.75 12.4663V5.3417C0.75 4.279 1.6138 3.44607 2.65796 3.33565C4.71953 3.11773 5.7122 2.51731 6.65203 1.94298L6.73589 1.89231L6.74643 1.88594L6.75676 1.87923C7.24918 1.5592 7.77599 1.29551 8.32728 1.09313C8.93974 0.882082 9.68156 0.75 10.687 0.75H16.921C18.3102 0.75 19.2473 1.44597 19.7139 2.26606L19.7139 2.26608L19.7179 2.27292C19.9396 2.65328 20.0597 3.08434 20.0664 3.52453C20.0659 3.72346 20.0366 3.92028 19.9738 4.0982L19.8377 4.48399L20.0883 4.80733C20.4124 5.22534 20.6663 5.69321 20.8403 6.19267C21.0086 6.69805 21.0619 7.25389 20.8683 7.69726L20.7245 8.02648L20.8909 8.34485C20.9865 8.52761 21.0628 8.71979 21.1186 8.91831L21.1192 8.92021C21.2347 9.32694 21.2919 9.7841 21.2919 10.2417C21.2919 10.6953 21.2348 11.1548 21.12 11.5585C21.0668 11.7403 21.0014 11.9183 20.9217 12.0803L20.7255 12.4795L20.9817 12.8431C21.2247 13.1881 21.3811 13.5865 21.4375 14.0047C21.4939 14.423 21.4488 14.8486 21.3059 15.2457L21.3059 15.2457L21.3032 15.2532C20.9991 16.1273 20.3022 16.8315 19.6369 17.0538C18.2736 17.5076 16.6926 17.5065 15.4609 17.3942L15.459 17.3941C15.189 17.3701 14.9382 17.3414 14.7129 17.3083L13.6204 17.1476L13.8737 18.2224C14.6735 21.6151 14.143 24.4992 13.7706 25.8828C13.6871 26.1735 13.5276 26.4368 13.3087 26.6456C13.0886 26.8555 12.8163 27.0026 12.5202 27.0718L12.5201 27.0717L12.5095 27.0744L12.0446 27.1901Z" stroke="#2A2238" stroke-width="1.5"/>
</svg>
